X:1
T:Honky Tonk Piano
C:Jeannie Test
M:4/4
L:1/8
Q:1/4=140
K:G
% Simple honky tonk pattern in G
|: G,2 B,2 D2 G2 | A,2 C2 E2 A2 | B,2 D2 G2 B2 | D2 G2 B2 d2 |
| G2 B2 d2 B2 | A2 c2 e2 c2 | G2 B2 d2 B2 | D2 G2 B2 G2 :|
